Playground/textures/invert.3dl
#Created by: Adobe Photoshop Export Color Lookup Plugin
#Description: 20180921-10h15m53s-Window.png
0 205 409 614 818 1023
4095 4095 4095
4095 4095 3276
4095 4095 2457
4095 4095 1638
4095 4095 819
4095 4095 0
4095 3276 4095
4095 3276 3276
4095 3276 2457
4095 3276 1638
4095 3276 819
4095 3276 0
4095 2457 4095
4095 2457 3276
4095 2457 2457
4095 2457 1638
4095 2457 819
4095 2457 0
4095 1638 4095
4095 1638 3276
4095 1638 2457
4095 1638 1638
4095 1638 819
4095 1638 0
4095 819 4095
4095 819 3276
4095 819 2457
4095 819 1638
4095 819 819
4095 819 0
4095 0 4095
4095 0 3276
4095 0 2457
4095 0 1638
4095 0 819
4095 0 0
3276 4095 4095
3276 4095 3276
3276 4095 2457
3276 4095 1638
3276 4095 819
3276 4095 0
3276 3276 4095
3276 3276 3276
3276 3276 2457
3276 3276 1638
3276 3276 819
3276 3276 0
3276 2457 4095
3276 2457 3276
3276 2457 2457
3276 2457 1638
3276 2457 819
3276 2457 0
3276 1638 4095
3276 1638 3276
3276 1638 2457
3276 1638 1638
3276 1638 819
3276 1638 0
3276 819 4095
3276 819 3276
3276 819 2457
3276 819 1638
3276 819 819
3276 819 0
3276 0 4095
3276 0 3276
3276 0 2457
3276 0 1638
3276 0 819
3276 0 0
2457 4095 4095
2457 4095 3276
2457 4095 2457
2457 4095 1638
2457 4095 819
2457 4095 0
2457 3276 4095
2457 3276 3276
2457 3276 2457
2457 3276 1638
2457 3276 819
2457 3276 0
2457 2457 4095
2457 2457 3276
2457 2457 2457
2457 2457 1638
2457 2457 819
2457 2457 0
2457 1638 4095
2457 1638 3276
2457 1638 2457
2457 1638 1638
2457 1638 819
2457 1638 0
2457 819 4095
2457 819 3276
2457 819 2457
2457 819 1638
2457 819 819
2457 819 0
2457 0 4095
2457 0 3276
2457 0 2457
2457 0 1638
2457 0 819
2457 0 0
1638 4095 4095
1638 4095 3276
1638 4095 2457
1638 4095 1638
1638 4095 819
1638 4095 0
1638 3276 4095
1638 3276 3276
1638 3276 2457
1638 3276 1638
1638 3276 819
1638 3276 0
1638 2457 4095
1638 2457 3276
1638 2457 2457
1638 2457 1638
1638 2457 819
1638 2457 0
1638 1638 4095
1638 1638 3276
1638 1638 2457
1638 1638 1638
1638 1638 819
1638 1638 0
1638 819 4095
1638 819 3276
1638 819 2457
1638 819 1638
1638 819 819
1638 819 0
1638 0 4095
1638 0 3276
1638 0 2457
1638 0 1638
1638 0 819
1638 0 0
819 4095 4095
819 4095 3276
819 4095 2457
819 4095 1638
819 4095 819
819 4095 0
819 3276 4095
819 3276 3276
819 3276 2457
819 3276 1638
819 3276 819
819 3276 0
819 2457 4095
819 2457 3276
819 2457 2457
819 2457 1638
819 2457 819
819 2457 0
819 1638 4095
819 1638 3276
819 1638 2457
819 1638 1638
819 1638 819
819 1638 0
819 819 4095
819 819 3276
819 819 2457
819 819 1638
819 819 819
819 819 0
819 0 4095
819 0 3276
819 0 2457
819 0 1638
819 0 819
819 0 0
0 4095 4095
0 4095 3276
0 4095 2457
0 4095 1638
0 4095 819
0 4095 0
0 3276 4095
0 3276 3276
0 3276 2457
0 3276 1638
0 3276 819
0 3276 0
0 2457 4095
0 2457 3276
0 2457 2457
0 2457 1638
0 2457 819
0 2457 0
0 1638 4095
0 1638 3276
0 1638 2457
0 1638 1638
0 1638 819
0 1638 0
0 819 4095
0 819 3276
0 819 2457
0 819 1638
0 819 819
0 819 0
0 0 4095
0 0 3276
0 0 2457
0 0 1638
0 0 819
0 0 0
