Playground/textures/invert.3dl
#Created by: Adobe Photoshop Export Color Lookup Plugin
#Description: 20180921-10h15m53s-Window.png
0 68 136 205 273 341 409 477 546 614 682 750 818 887 955 1023
4095 4095 4095
4095 4095 3822
4095 4095 3549
4095 4095 3276
4095 4095 3003
4095 4095 2730
4095 4095 2457
4095 4095 2184
4095 4095 1911
4095 4095 1638
4095 4095 1365
4095 4095 1092
4095 4095 819
4095 4095 546
4095 4095 273
4095 4095 0
4095 3822 4095
4095 3822 3822
4095 3822 3549
4095 3822 3276
4095 3822 3003
4095 3822 2730
4095 3822 2457
4095 3822 2184
4095 3822 1911
4095 3822 1638
4095 3822 1365
4095 3822 1092
4095 3822 819
4095 3822 546
4095 3822 273
4095 3822 0
4095 3549 4095
4095 3549 3822
4095 3549 3549
4095 3549 3276
4095 3549 3003
4095 3549 2730
4095 3549 2457
4095 3549 2184
4095 3549 1911
4095 3549 1638
4095 3549 1365
4095 3549 1092
4095 3549 819
4095 3549 546
4095 3549 273
4095 3549 0
4095 3276 4095
4095 3276 3822
4095 3276 3549
4095 3276 3276
4095 3276 3003
4095 3276 2730
4095 3276 2457
4095 3276 2184
4095 3276 1911
4095 3276 1638
4095 3276 1365
4095 3276 1092
4095 3276 819
4095 3276 546
4095 3276 273
4095 3276 0
4095 3003 4095
4095 3003 3822
4095 3003 3549
4095 3003 3276
4095 3003 3003
4095 3003 2730
4095 3003 2457
4095 3003 2184
4095 3003 1911
4095 3003 1638
4095 3003 1365
4095 3003 1092
4095 3003 819
4095 3003 546
4095 3003 273
4095 3003 0
4095 2730 4095
4095 2730 3822
4095 2730 3549
4095 2730 3276
4095 2730 3003
4095 2730 2730
4095 2730 2457
4095 2730 2184
4095 2730 1911
4095 2730 1638
4095 2730 1365
4095 2730 1092
4095 2730 819
4095 2730 546
4095 2730 273
4095 2730 0
4095 2457 4095
4095 2457 3822
4095 2457 3549
4095 2457 3276
4095 2457 3003
4095 2457 2730
4095 2457 2457
4095 2457 2184
4095 2457 1911
4095 2457 1638
4095 2457 1365
4095 2457 1092
4095 2457 819
4095 2457 546
4095 2457 273
4095 2457 0
4095 2184 4095
4095 2184 3822
4095 2184 3549
4095 2184 3276
4095 2184 3003
4095 2184 2730
4095 2184 2457
4095 2184 2184
4095 2184 1911
4095 2184 1638
4095 2184 1365
4095 2184 1092
4095 2184 819
4095 2184 546
4095 2184 273
4095 2184 0
4095 1911 4095
4095 1911 3822
4095 1911 3549
4095 1911 3276
4095 1911 3003
4095 1911 2730
4095 1911 2457
4095 1911 2184
4095 1911 1911
4095 1911 1638
4095 1911 1365
4095 1911 1092
4095 1911 819
4095 1911 546
4095 1911 273
4095 1911 0
4095 1638 4095
4095 1638 3822
4095 1638 3549
4095 1638 3276
4095 1638 3003
4095 1638 2730
4095 1638 2457
4095 1638 2184
4095 1638 1911
4095 1638 1638
4095 1638 1365
4095 1638 1092
4095 1638 819
4095 1638 546
4095 1638 273
4095 1638 0
4095 1365 4095
4095 1365 3822
4095 1365 3549
4095 1365 3276
4095 1365 3003
4095 1365 2730
4095 1365 2457
4095 1365 2184
4095 1365 1911
4095 1365 1638
4095 1365 1365
4095 1365 1092
4095 1365 819
4095 1365 546
4095 1365 273
4095 1365 0
4095 1092 4095
4095 1092 3822
4095 1092 3549
4095 1092 3276
4095 1092 3003
4095 1092 2730
4095 1092 2457
4095 1092 2184
4095 1092 1911
4095 1092 1638
4095 1092 1365
4095 1092 1092
4095 1092 819
4095 1092 546
4095 1092 273
4095 1092 0
4095 819 4095
4095 819 3822
4095 819 3549
4095 819 3276
4095 819 3003
4095 819 2730
4095 819 2457
4095 819 2184
4095 819 1911
4095 819 1638
4095 819 1365
4095 819 1092
4095 819 819
4095 819 546
4095 819 273
4095 819 0
4095 546 4095
4095 546 3822
4095 546 3549
4095 546 3276
4095 546 3003
4095 546 2730
4095 546 2457
4095 546 2184
4095 546 1911
4095 546 1638
4095 546 1365
4095 546 1092
4095 546 819
4095 546 546
4095 546 273
4095 546 0
4095 273 4095
4095 273 3822
4095 273 3549
4095 273 3276
4095 273 3003
4095 273 2730
4095 273 2457
4095 273 2184
4095 273 1911
4095 273 1638
4095 273 1365
4095 273 1092
4095 273 819
4095 273 546
4095 273 273
4095 273 0
4095 0 4095
4095 0 3822
4095 0 3549
4095 0 3276
4095 0 3003
4095 0 2730
4095 0 2457
4095 0 2184
4095 0 1911
4095 0 1638
4095 0 1365
4095 0 1092
4095 0 819
4095 0 546
4095 0 273
4095 0 0
3822 4095 4095
3822 4095 3822
3822 4095 3549
3822 4095 3276
3822 4095 3003
3822 4095 2730
3822 4095 2457
3822 4095 2184
3822 4095 1911
3822 4095 1638
3822 4095 1365
3822 4095 1092
3822 4095 819
3822 4095 546
3822 4095 273
3822 4095 0
3822 3822 4095
3822 3822 3822
3822 3822 3549
3822 3822 3276
3822 3822 3003
3822 3822 2730
3822 3822 2457
3822 3822 2184
3822 3822 1911
3822 3822 1638
3822 3822 1365
3822 3822 1092
3822 3822 819
3822 3822 546
3822 3822 273
3822 3822 0
3822 3549 4095
3822 3549 3822
3822 3549 3549
3822 3549 3276
3822 3549 3003
3822 3549 2730
3822 3549 2457
3822 3549 2184
3822 3549 1911
3822 3549 1638
3822 3549 1365
3822 3549 1092
3822 3549 819
3822 3549 546
3822 3549 273
3822 3549 0
3822 3276 4095
3822 3276 3822
3822 3276 3549
3822 3276 3276
3822 3276 3003
3822 3276 2730
3822 3276 2457
3822 3276 2184
3822 3276 1911
3822 3276 1638
3822 3276 1365
3822 3276 1092
3822 3276 819
3822 3276 546
3822 3276 273
3822 3276 0
3822 3003 4095
3822 3003 3822
3822 3003 3549
3822 3003 3276
3822 3003 3003
3822 3003 2730
3822 3003 2457
3822 3003 2184
3822 3003 1911
3822 3003 1638
3822 3003 1365
3822 3003 1092
3822 3003 819
3822 3003 546
3822 3003 273
3822 3003 0
3822 2730 4095
3822 2730 3822
3822 2730 3549
3822 2730 3276
3822 2730 3003
3822 2730 2730
3822 2730 2457
3822 2730 2184
3822 2730 1911
3822 2730 1638
3822 2730 1365
3822 2730 1092
3822 2730 819
3822 2730 546
3822 2730 273
3822 2730 0
3822 2457 4095
3822 2457 3822
3822 2457 3549
3822 2457 3276
3822 2457 3003
3822 2457 2730
3822 2457 2457
3822 2457 2184
3822 2457 1911
3822 2457 1638
3822 2457 1365
3822 2457 1092
3822 2457 819
3822 2457 546
3822 2457 273
3822 2457 0
3822 2184 4095
3822 2184 3822
3822 2184 3549
3822 2184 3276
3822 2184 3003
3822 2184 2730
3822 2184 2457
3822 2184 2184
3822 2184 1911
3822 2184 1638
3822 2184 1365
3822 2184 1092
3822 2184 819
3822 2184 546
3822 2184 273
3822 2184 0
3822 1911 4095
3822 1911 3822
3822 1911 3549
3822 1911 3276
3822 1911 3003
3822 1911 2730
3822 1911 2457
3822 1911 2184
3822 1911 1911
3822 1911 1638
3822 1911 1365
3822 1911 1092
3822 1911 819
3822 1911 546
3822 1911 273
3822 1911 0
3822 1638 4095
3822 1638 3822
3822 1638 3549
3822 1638 3276
3822 1638 3003
3822 1638 2730
3822 1638 2457
3822 1638 2184
3822 1638 1911
3822 1638 1638
3822 1638 1365
3822 1638 1092
3822 1638 819
3822 1638 546
3822 1638 273
3822 1638 0
3822 1365 4095
3822 1365 3822
3822 1365 3549
3822 1365 3276
3822 1365 3003
3822 1365 2730
3822 1365 2457
3822 1365 2184
3822 1365 1911
3822 1365 1638
3822 1365 1365
3822 1365 1092
3822 1365 819
3822 1365 546
3822 1365 273
3822 1365 0
3822 1092 4095
3822 1092 3822
3822 1092 3549
3822 1092 3276
3822 1092 3003
3822 1092 2730
3822 1092 2457
3822 1092 2184
3822 1092 1911
3822 1092 1638
3822 1092 1365
3822 1092 1092
3822 1092 819
3822 1092 546
3822 1092 273
3822 1092 0
3822 819 4095
3822 819 3822
3822 819 3549
3822 819 3276
3822 819 3003
3822 819 2730
3822 819 2457
3822 819 2184
3822 819 1911
3822 819 1638
3822 819 1365
3822 819 1092
3822 819 819
3822 819 546
3822 819 273
3822 819 0
3822 546 4095
3822 546 3822
3822 546 3549
3822 546 3276
3822 546 3003
3822 546 2730
3822 546 2457
3822 546 2184
3822 546 1911
3822 546 1638
3822 546 1365
3822 546 1092
3822 546 819
3822 546 546
3822 546 273
3822 546 0
3822 273 4095
3822 273 3822
3822 273 3549
3822 273 3276
3822 273 3003
3822 273 2730
3822 273 2457
3822 273 2184
3822 273 1911
3822 273 1638
3822 273 1365
3822 273 1092
3822 273 819
3822 273 546
3822 273 273
3822 273 0
3822 0 4095
3822 0 3822
3822 0 3549
3822 0 3276
3822 0 3003
3822 0 2730
3822 0 2457
3822 0 2184
3822 0 1911
3822 0 1638
3822 0 1365
3822 0 1092
3822 0 819
3822 0 546
3822 0 273
3822 0 0
3549 4095 4095
3549 4095 3822
3549 4095 3549
3549 4095 3276
3549 4095 3003
3549 4095 2730
3549 4095 2457
3549 4095 2184
3549 4095 1911
3549 4095 1638
3549 4095 1365
3549 4095 1092
3549 4095 819
3549 4095 546
3549 4095 273
3549 4095 0
3549 3822 4095
3549 3822 3822
3549 3822 3549
3549 3822 3276
3549 3822 3003
3549 3822 2730
3549 3822 2457
3549 3822 2184
3549 3822 1911
3549 3822 1638
3549 3822 1365
3549 3822 1092
3549 3822 819
3549 3822 546
3549 3822 273
3549 3822 0
3549 3549 4095
3549 3549 3822
3549 3549 3549
3549 3549 3276
3549 3549 3003
3549 3549 2730
3549 3549 2457
3549 3549 2184
3549 3549 1911
3549 3549 1638
3549 3549 1365
3549 3549 1092
3549 3549 819
3549 3549 546
3549 3549 273
3549 3549 0
3549 3276 4095
3549 3276 3822
3549 3276 3549
3549 3276 3276
3549 3276 3003
3549 3276 2730
3549 3276 2457
3549 3276 2184
3549 3276 1911
3549 3276 1638
3549 3276 1365
3549 3276 1092
3549 3276 819
3549 3276 546
3549 3276 273
3549 3276 0
3549 3003 4095
3549 3003 3822
3549 3003 3549
3549 3003 3276
3549 3003 3003
3549 3003 2730
3549 3003 2457
3549 3003 2184
3549 3003 1911
3549 3003 1638
3549 3003 1365
3549 3003 1092
3549 3003 819
3549 3003 546
3549 3003 273
3549 3003 0
3549 2730 4095
3549 2730 3822
3549 2730 3549
3549 2730 3276
3549 2730 3003
3549 2730 2730
3549 2730 2457
3549 2730 2184
3549 2730 1911
3549 2730 1638
3549 2730 1365
3549 2730 1092
3549 2730 819
3549 2730 546
3549 2730 273
3549 2730 0
3549 2457 4095
3549 2457 3822
3549 2457 3549
3549 2457 3276
3549 2457 3003
3549 2457 2730
3549 2457 2457
3549 2457 2184
3549 2457 1911
3549 2457 1638
3549 2457 1365
3549 2457 1092
3549 2457 819
3549 2457 546
3549 2457 273
3549 2457 0
3549 2184 4095
3549 2184 3822
3549 2184 3549
3549 2184 3276
3549 2184 3003
3549 2184 2730
3549 2184 2457
3549 2184 2184
3549 2184 1911
3549 2184 1638
3549 2184 1365
3549 2184 1092
3549 2184 819
3549 2184 546
3549 2184 273
3549 2184 0
3549 1911 4095
3549 1911 3822
3549 1911 3549
3549 1911 3276
3549 1911 3003
3549 1911 2730
3549 1911 2457
3549 1911 2184
3549 1911 1911
3549 1911 1638
3549 1911 1365
3549 1911 1092
3549 1911 819
3549 1911 546
3549 1911 273
3549 1911 0
3549 1638 4095
3549 1638 3822
3549 1638 3549
3549 1638 3276
3549 1638 3003
3549 1638 2730
3549 1638 2457
3549 1638 2184
3549 1638 1911
3549 1638 1638
3549 1638 1365
3549 1638 1092
3549 1638 819
3549 1638 546
3549 1638 273
3549 1638 0
3549 1365 4095
3549 1365 3822
3549 1365 3549
3549 1365 3276
3549 1365 3003
3549 1365 2730
3549 1365 2457
3549 1365 2184
3549 1365 1911
3549 1365 1638
3549 1365 1365
3549 1365 1092
3549 1365 819
3549 1365 546
3549 1365 273
3549 1365 0
3549 1092 4095
3549 1092 3822
3549 1092 3549
3549 1092 3276
3549 1092 3003
3549 1092 2730
3549 1092 2457
3549 1092 2184
3549 1092 1911
3549 1092 1638
3549 1092 1365
3549 1092 1092
3549 1092 819
3549 1092 546
3549 1092 273
3549 1092 0
3549 819 4095
3549 819 3822
3549 819 3549
3549 819 3276
3549 819 3003
3549 819 2730
3549 819 2457
3549 819 2184
3549 819 1911
3549 819 1638
3549 819 1365
3549 819 1092
3549 819 819
3549 819 546
3549 819 273
3549 819 0
3549 546 4095
3549 546 3822
3549 546 3549
3549 546 3276
3549 546 3003
3549 546 2730
3549 546 2457
3549 546 2184
3549 546 1911
3549 546 1638
3549 546 1365
3549 546 1092
3549 546 819
3549 546 546
3549 546 273
3549 546 0
3549 273 4095
3549 273 3822
3549 273 3549
3549 273 3276
3549 273 3003
3549 273 2730
3549 273 2457
3549 273 2184
3549 273 1911
3549 273 1638
3549 273 1365
3549 273 1092
3549 273 819
3549 273 546
3549 273 273
3549 273 0
3549 0 4095
3549 0 3822
3549 0 3549
3549 0 3276
3549 0 3003
3549 0 2730
3549 0 2457
3549 0 2184
3549 0 1911
3549 0 1638
3549 0 1365
3549 0 1092
3549 0 819
3549 0 546
3549 0 273
3549 0 0
3276 4095 4095
3276 4095 3822
3276 4095 3549
3276 4095 3276
3276 4095 3003
3276 4095 2730
3276 4095 2457
3276 4095 2184
3276 4095 1911
3276 4095 1638
3276 4095 1365
3276 4095 1092
3276 4095 819
3276 4095 546
3276 4095 273
3276 4095 0
3276 3822 4095
3276 3822 3822
3276 3822 3549
3276 3822 3276
3276 3822 3003
3276 3822 2730
3276 3822 2457
3276 3822 2184
3276 3822 1911
3276 3822 1638
3276 3822 1365
3276 3822 1092
3276 3822 819
3276 3822 546
3276 3822 273
3276 3822 0
3276 3549 4095
3276 3549 3822
3276 3549 3549
3276 3549 3276
3276 3549 3003
3276 3549 2730
3276 3549 2457
3276 3549 2184
3276 3549 1911
3276 3549 1638
3276 3549 1365
3276 3549 1092
3276 3549 819
3276 3549 546
3276 3549 273
3276 3549 0
3276 3276 4095
3276 3276 3822
3276 3276 3549
3276 3276 3276
3276 3276 3003
3276 3276 2730
3276 3276 2457
3276 3276 2184
3276 3276 1911
3276 3276 1638
3276 3276 1365
3276 3276 1092
3276 3276 819
3276 3276 546
3276 3276 273
3276 3276 0
3276 3003 4095
3276 3003 3822
3276 3003 3549
3276 3003 3276
3276 3003 3003
3276 3003 2730
3276 3003 2457
3276 3003 2184
3276 3003 1911
3276 3003 1638
3276 3003 1365
3276 3003 1092
3276 3003 819
3276 3003 546
3276 3003 273
3276 3003 0
3276 2730 4095
3276 2730 3822
3276 2730 3549
3276 2730 3276
3276 2730 3003
3276 2730 2730
3276 2730 2457
3276 2730 2184
3276 2730 1911
3276 2730 1638
3276 2730 1365
3276 2730 1092
3276 2730 819
3276 2730 546
3276 2730 273
3276 2730 0
3276 2457 4095
3276 2457 3822
3276 2457 3549
3276 2457 3276
3276 2457 3003
3276 2457 2730
3276 2457 2457
3276 2457 2184
3276 2457 1911
3276 2457 1638
3276 2457 1365
3276 2457 1092
3276 2457 819
3276 2457 546
3276 2457 273
3276 2457 0
3276 2184 4095
3276 2184 3822
3276 2184 3549
3276 2184 3276
3276 2184 3003
3276 2184 2730
3276 2184 2457
3276 2184 2184
3276 2184 1911
3276 2184 1638
3276 2184 1365
3276 2184 1092
3276 2184 819
3276 2184 546
3276 2184 273
3276 2184 0
3276 1911 4095
3276 1911 3822
3276 1911 3549
3276 1911 3276
